X: 304
T:Rosie's Reel
M:C|
L:1/8
C:Kevin Crawford
R:reel
N:Played on Low F whistle on the recording
D:Lnasa Otherworld
Z:Spencer Nitchie
Z:Aaron Clegg
K:BMin
FBBA BBdA|FAAF ABFE|FBBA BBAB|def/2e/2d eeeg|
fBBA B2 dA|FAAF ABFE|FBBB dBfd|cAec dBBA:|
fBBB g4-|gffe edcB|A2 AA EAce|
aefa fece|fBBB gfeg|fBBB dcBc|ABc/2B/2A EAce|
aece fBBB||fBBB geag|fBBB dBec|A2 AA EAce|
aefa fece|fBBB bafe|fBBB dcBc|a4 afec|
ddBA BAFE||

